!!!COM: Chopin, Frederic
!!!CDT: 1810///-1849///
!!!OTL: Prelude in D-flat Major, Op. 28, No. 15
!!!OPS: Op. 28
!!!ONM: No. 15
!!!OMD: Sostenuto
!!!ODT: 1836///-1839///
!!!PDT: 1839///
!!!ENC: Craig Stuart Sapp
!!!END: 2008/01/15/
!!!AIN: piano
!!!EEV: 2008/01/15/
!!!YEC: Copyright 2008 by Craig Stuart Sapp
!!!YEN: United States of America
**kern	**kern	**dynam
*Ipiano	*Ipiano	*Ipiano
*staff2	*staff1	*staff1
*clefF4	*clefG2	*clefG2
*k[b-e-a-d-g-]	*k[b-e-a-d-g-]	*k[b-e-a-d-g-]
*D-:	*D-:	*D-:
*met(C)	*met(C)	*met(C)
*M4/4	*M4/4	*M4/4
*MM104	*MM104	*MM104
=1-	=1-	=1-
8D-\L	(8.ff\L	p
8A-\	.	.
.	16dd-\Jk	.
8d-\ 8f\	2a-/	.
8A-\J	.	.
8A-\L	.	.
8A-\	.	.
8d-\ 8f\	4b-\	.
8A-\J	.	.
=2	=2	=2
8e-\ 8g-\L	2.cc\	.
8A-\	.	.
8A-\	.	.
8A-\J	.	.
8B-\L	.	.
8A-\	.	.
8d-\ 8f\	4dd-\	.
8A-\J	.	.
=3	=3	=3
8c\ 8g-\L	8.ee-/L	.
16A-\L	.	.
16a-\J	16ff/Jk	.
8b-\	2gg-/	.
8A-\J	.	.
8A-\L	.	.
8A-\	.	.
8d-\ 8a-\	4ff/	.
8A-\J	.	.
=4	=4	=4
8c\ 8a-\L	4.ff/	.
8A-\	.	.
8g-\	.	.
8A-\J	8ee-/	.
8d-\ 8f\L	4dd-/	.
8A-\	.	.
.	ee-q/	.
8c\ 8g-\	28ee-/L	.
.	28ff/	.
.	28ee-/	.
.	28ddn/	.
8A-\J	.	.
.	28ee-/	.
.	28ff/	.
.	28gg-/J	.
=5	=5	=5
8D-\L	8.ff\L	.
8A-\	.	.
.	16dd-\Jk	.
8d-\ 8f\	2a-/	.
8A-\J	.	.
8A-\L	.	.
8A-\	.	.
8A-\	4b-\	.
8A-\J	.	.
=6	=6	=6
8e-\ 8g-\L	2.cc\	.
8A-\	.	.
8A-\	.	.
8A-\J	.	.
8B-\L	.	.
8A-\	.	.
8d-\ 8f\	4dd-\	.
8A-\J	.	.
=7	=7	=7
8c\ 8g-\L	8.ee-/L	.
16A-\L	.	.
16a-\J	16ff/Jk	.
8b-\	2gg-/	.
8A-\J	.	.
8A-\L	.	.
8A-\	.	.
8d-\ 8a-\	4ff/	.
8A-\J	.	.
=8	=8	=8
8c\ 8a-\L	4.ff/	.
8A-\	.	.
8g-\	.	.
8A-\J	8ee-/	.
8d-\ 8f\L	4dd-/)	.
8A-\	.	.
8d-\ 8f\	(8cc\L	.
8A-\J	8dd-\J	.
=9	=9	=9
8AA-\L	4ee-\	.
8A-\	.	.
8c\ 8e-\	2ee-\	.
8A-\J	.	.
8c-\ 8e-\L	.	.
8A-\	.	.
8D-\ 8c-\ 8f\	4ff\	.
8d-\J	.	.
=10	=10	=10
8G-\ 8B-\L	8gg-\L	.
8d-\	8ff\	.
8B-\ 8g-\	8ee-\	.
8d-\J	8dd-\J	.
8D-\L	2ff\	.
8A-\	.	.
8d-\ 8f\	.	.
8A-\J	.	.
=11	=11	=11
8E-\L	8ee-\L	.
8A-\	8cc-\	.
8c-\ 8e-\	8b-\	.
8A-\J	8a-\J	.
8E-\L	4b-\	.
8Gn\	.	.
.	cc-q/L	.
.	b-q/	.
.	a-q/J	.
8d-\ 8e-\	8.b-\L	.
8G\J	.	.
.	16cc-\Jk	.
=12	=12	=12
8AA-\L	4a-/)	.
8A-\	.	.
8c-\ 8e-\	(4ee-\	.
8A-\J	.	.
8B-\ 8d-\L	4dd-\	.
8A-\	.	.
8d-\ 8f-\	4ff-\	.
8A-\J	.	.
=13	=13	=13
8AA-\L	4ee-\	.
8A-\	.	.
8c-\ 8e-\	2ee-\	.
8A-\J	.	.
8A-\L	.	.
8A-\	.	.
8c-\ 8f\	4ff\	.
8A-\J	.	.
=14	=14	=14
8E-\L	8gg-\L	.
8G-\	8ff\	.
8B-\ 8g-\	8ee-\	.
8G-\J	8dd-\J	.
8BB-\L	[2ff\	.
8F\	.	.
8B-\ 8d-\ 8f\	.	.
8F\J	.	.
=15	=15	=15
8FF\L	8ff\L]	.
8F\	8dd-\	.
8B-\ 8d-\ 8f\	8cc\	.
8F\J	8b-\J	.
8FF\L	4cc\	.
8F\	.	.
.	dd-q/L	.
.	ccq/	.
.	b-q/J	.
8An\ 8e-\ 8f\	8cc\L	.
8F\J	8dd-\J	.
=16	=16	=16
8BB-\L	4b-\)	.
8F\	.	.
8d-\ 8f\	(4ff\	.
8F\J	.	.
8c\ 8e-\L	4ee-\	.
8F\	.	.
8e-\ 8g-\	4gg-\	.
8F\J	.	.
=17	=17	=17
8d-\ 8f\L	8ff\L	.
8F\	8dd-\	.
8B-\ 8d-\ 8f\	8cc\	.
8F\J	8b-\J	.
8An\ 8e-\L	4cc\	.
8F\	.	.
.	dd-q/L	.
.	ccq/	.
.	b-q/J	.
8e-\ 8f\	8.cc\L	.
8F\J	.	.
.	16dd-\Jk)	.
=18	=18	=18
8BB-\L	4b-\	.
8F\	.	.
8c\ 8e-\	4ee-\	.
8F\J	.	.
8d-\ 8f\L	4ff\	.
8F\	.	.
8c\ 8e-\	4ee-\	.
8F\J	.	.
=19	=19	=19
8d-\ 8f\L	2.ff\	.
8F\	.	.
8F\	.	.
8F\J	.	.
8d-\ 8f\L	.	.
8G-\	.	.
8c\ 8e-\	4ee-\	.
8A-\J	.	.
=20	=20	=20
8D-\L	8.ff\L	.
8A-\	.	.
.	16dd-\Jk	.
8d-\ 8f\	2a-/	.
8A-\J	.	.
8A-\L	.	.
8A-\	.	.
8d-\ 8f\	4b-\	.
8A-\J	.	.
=21	=21	=21
8e-\ 8g-\L	2.cc\	.
8A-\	.	.
8A-\	.	.
8A-\J	.	.
8B-\L	.	.
8A-\	.	.
8d-\ 8f\	4dd-\	.
8A-\J	.	.
=22	=22	=22
8c\ 8g-\L	8.ee-/L	.
16A-\L	.	.
16a-\J	16ff/Jk	.
8b-\	2gg-/	.
8A-\J	.	.
8A-\L	.	.
8A-\	.	.
8d-\ 8a-\	4ff/	.
8A-\J	.	.
=23	=23	=23
8c\ 8a-\L	4.ff/	.
8A-\	.	.
8c\ 8g-\	.	.
8A-\J	8ee-/	.
8d-\ 8f\L	(4dd-/	.
8A-\	.	.
8c\ 8g-\	28ddn/L)	.
.	28ee-/	.
.	28een/	.
.	&(28ff/&)	.
8A-\J	.	.
.	28aa-/	.
.	28ggn/	.
.	28gg-/J	.
=24	=24	=24
8D-\L	8.ff\L	.
8A-\	.	.
.	16dd-\Jk	.
8d-\ 8f\	2a-/	.
8A-\J	.	.
8A-\L	.	.
8A-\	.	.
8A-\	4b-\	.
8A-\J	.	.
=25	=25	=25
8e-\ 8g-\L	2.cc\	.
8A-\	.	.
8A-\	.	.
8A-\J	.	.
8B-\L	.	.
8A-\	.	.
8d-\ 8f\	4dd-\	.
8A-\J	.	.
=26	=26	=26
8c\ 8g-\L	8.ee-/L	.
16A-\L	.	.
16a-\J	16ff/Jk	.
8b-\	2gg-/	.
8A-\J	.	.
8A-\L	.	.
8A-\	.	.
8e-\	(4cc/	.
8A-\J	.	.
=27	=27	=27
8g-\L	2ee-/)	.
8A-\	.	.
8A-\	.	.
8A-\J	.	.
8A-\L	2r	.
8A-\	.	.
8A-\	.	.
8A-\J	.	.
=28	=28	=28
*k[f#c#g#d#]	*k[f#c#g#d#]	*k[f#c#g#d#]
4CC#/ 4GG#/	(8G#/L	.
.	8G#/	.
4DD#/ 4GG#/	8G#/	<
.	8G#/J	.
4EE/ 4C#/	8G#/L	.
.	8G#/	.
4DD#/ 4BB#/	8G#/	.
.	8G#/J	.
=29	=29	=29
4DD#/ 4GG#/	8G#/L	.
.	8G#/	.
4EE/ 4GG#/	8G#/	.
.	8G#/J	.
4FF#/ 4D#/	8G#/L	.
.	8G#/	.
4EE/ 4C#/	8G#/	.
.	8G#/J	.
=30	=30	=30
4EE/ 4C#/	8G#/L	<
.	8G#/	.
4GG#/ 4D#/	8G#/	.
.	8G#/J	.
4C#/ 4E/	8G#/L	.
.	8G#/	.
4GG#/ 4D#/	8G#/	.
.	8G#/J	.
=31	=31	=31
[1GG# [1D#	8G#/L	.
.	8G#/	.
.	8G#/	.
.	8G#/J	.
.	8G#/L	.
.	8G#/	.
.	8G#/	.
.	8G#/J	.
=32	=32	=32
4GG#/] 4D#/]	8G#/L	.
.	8G#/	.
4C#/ 4E/	8G#/	.
.	8G#/J	.
4GG#/ 4D#/	8G#/L	.
.	8G#/	.
4EE/ 4C#/	8G#/	.
.	8G#/J)	.
=33	=33	=33
4GG#/ 4D#/	8G#/L	.
.	8G#/	.
4EE/ 4C#/	8G#/	.
.	8G#/J	.
4DD#/ 4BB#/	8G#/L	.
.	8G#/	.
4EE/ 4C#/	8G#/	.
.	8G#/J	.
=34	=34	=34
4DD#/ 4BB#/	8G#/L	<
.	8G#/	.
4EE/ 4C#/	8G#/	.
.	8G#/J	.
4DD#/ 4D#/	8G#/L	.
.	8G#/	.
4CC#/ 4E/	8G#/	.
.	8G#/J	.
=35	=35	=35
&(1GG#&) 1D#	8G#/L	.
.	8G#/ 8g#/	<
.	8G#/ 8g#/	.
.	8G#/ 8g#/J	.
.	8G#/ 8g#/L	.
.	8G#/ 8g#/	.
.	8G#/ 8g#/	.
.	8G#/ 8g#/J	.
=36	=36	=36
*	*^	*
(4CC#/ 4GG#/	8G#/ 8g#/L	2r	.
.	8G#/ 8g#/	.	.
4DD#/ 4GG#/	8G#/ 8g#/	.	.
.	8G#/ 8g#/J	.	.
4EE/ 4C#/	8G#/ 8g#/L	4c#\	.
.	8G#/ 8g#/	.	.
4DD#/ 4BB#/	8G#/ 8g#/	4B#\	.
.	8G#/ 8g#/J	.	.
=37	=37	=37	=37
4DD#/ 4GG#/	8G#/ 8g#/L	2r	.
.	8G#/ 8g#/	.	.
4EE/ 4GG#/	8G#/ 8g#/	.	.
.	8G#/ 8g#/J	.	.
4FF#/ 4D#/	8G#/ 8g#/L	4d#\	.
.	8G#/ 8g#/	.	.
4EE/ 4C#/	8G#/ 8g#/	[4c#\	.
.	8G#/ 8g#/J	.	.
=38	=38	=38	=38
4EE/ 4C#/	4c#\]	8G#/ 8g#/L	.
.	.	8G#/ 8g#/	.
4GG#/ 4D#/	4d#\	8G#/ 8g#/	.
.	.	8G#/ 8g#/J	.
4C#/ 4E/	4e\	8G#/ 8g#/L	.
.	.	8G#/ 8g#/	.
4GG#/) 4D#/	4d#\	8G#/ 8g#/	.
.	.	8G#/ 8g#/J	.
=39	=39	=39	=39
GGG#q/	.	.	.
1GG# 1D#	1d#	8G#/ 8g#/L	.
.	.	8G#/ 8g#/	.
.	.	8G#/ 8g#/	.
.	.	8G#/ 8g#/J	.
.	.	8G#/ 8g#/L	.
.	.	8G#/ 8g#/	.
.	.	8G#/ 8g#/	.
.	.	8G#/ 8g#/J	.
=40	=40	=40	=40
(2EEE/ 2EE/	2e^\ 2g#^\	8B/ 8b/L	ff
.	.	8B/ 8b/	.
.	.	8B/ 8b/	.
.	.	8B/ 8b/J	.
2BBB/ 2BB/	2d#^\ 2g#^\	8B/ 8b/L	.
.	.	8B/ 8b/	.
.	.	8B/ 8b/	.
.	.	8B/ 8b/J	.
=41	=41	=41	=41
2EEE/ 2EE/	2e^\ 2g#^\	8B/ 8b/L	.
.	.	8B/ 8b/	.
.	.	8B/ 8b/	.
.	.	8B/ 8b/J	.
4.BBB/ 4.BB/	2d#^\ 2g#^\	8B/ 8b/L	.
.	.	8B/ 8b/	.
.	.	8B/ 8b/	.
8AAA#/ 8AA#/	.	8B/ 8b/J	.
=42	=42	=42	=42
2GGG#/ 2GG#/	8B/ 8b/L	2d#^\ 2g#^\	.
.	8B/ 8b/	.	.
.	8B/ 8b/	.	.
.	8B/ 8b/J	.	.
2DD#/ 2D#/	8B/ 8b/L	2d#^\ 2f##^\	.
.	8B/ 8b/	.	.
.	8B/ 8b/	.	.
.	8B/ 8b/J	.	.
*	*v	*v	*
=43	=43	=43
2GGG#/) 2GG#/	8B^/ 8d#^/ 8g#^/ 8b^/L	p
.	8G#/	.
.	8G#/	.
.	8G#/J	.
2r	8G#/L	.
.	8G#/	.
.	8G#/	.
.	8G#/J	.
=44	=44	=44
(4CC#/ 4GG#/	8G#/L	.
.	8G#/	.
4DD#/ 4GG#/	8G#/	<
.	8G#/J	.
4EE/ 4C#/	8G#/L	.
.	8G#/	.
4DD#/ 4BB#/	8G#/	.
.	8G#/J	.
=45	=45	=45
4DD#/ 4GG#/	8G#/L	.
.	8G#/	.
4EE/ 4GG#/	8G#/	.
.	8G#/J	.
4FF#/ 4D#/	8G#/L	.
.	8G#/	.
4EE/ 4C#/	8G#/	.
.	8G#/J	.
=46	=46	=46
4EE/ 4C#/	8G#/L	<
.	8G#/	.
4GG#/ 4D#/	8G#/	.
.	8G#/J	.
4C#/ 4E/	8G#/L	.
.	8G#/	.
4GG#/ 4D#/	8G#/	.
.	8G#/J	.
=47	=47	=47
[1GG# [1D#	8G#/L	.
.	8G#/	.
.	8G#/	.
.	8G#/J	.
.	8G#/L	.
.	8G#/	.
.	8G#/	.
.	8G#/J	.
=48	=48	=48
4GG#/] 4D#/]	8G#/L	.
.	8G#/	.
4C#/ 4E/	8G#/	.
.	8G#/J	.
4GG#/ 4D#/	8G#/L	.
.	8G#/	.
4EE/ 4C#/	8G#/	.
.	8G#/J	.
=49	=49	=49
4GG#/ 4D#/	8G#/L	.
.	8G#/	.
4EE/ 4C#/	8G#/	.
.	8G#/J	.
4DD#/ 4BB#/	8G#/L	.
.	8G#/	.
4EE/ 4C#/	8G#/	.
.	8G#/J	.
=50	=50	=50
4DD#/ 4BB#/	8G#/L	<
.	8G#/	.
4EE/ 4C#/	8G#/	.
.	8G#/J	.
4DD#/ 4D#/	8G#/L	.
.	8G#/	.
4CC#/ 4E/	8G#/	.
.	8G#/J	.
=51	=51	=51
1GG#) 1D#	8G#/L	<
.	8G#/ 8g#/	.
.	8G#/ 8g#/	.
.	8G#/ 8g#/J	.
.	8G#/ 8g#/L	.
.	8G#/ 8g#/	.
.	8G#/ 8g#/	.
.	8G#/ 8g#/J	.
=52	=52	=52
*	*^	*
(4CC#/ 4GG#/	8G#/ 8g#/L	2r	.
.	8G#/ 8g#/	.	.
4DD#/ 4GG#/	8G#/ 8g#/	.	.
.	8G#/ 8g#/J	.	.
4EE/ 4C#/	8G#/ 8g#/L	4c#\	.
.	8G#/ 8g#/	.	.
4DD#/ 4BB#/	8G#/ 8g#/	4B#\	.
.	8G#/ 8g#/J	.	.
=53	=53	=53	=53
4DD#/ 4GG#/	8G#/ 8g#/L	2r	.
.	8G#/ 8g#/	.	.
4EE/ 4GG#/	8G#/ 8g#/	.	.
.	8G#/ 8g#/J	.	.
4FF#/ 4D#/	8G#/ 8g#/L	4d#\	.
.	8G#/ 8g#/	.	.
4EE/ 4C#/	8G#/ 8g#/	[4c#\	.
.	8G#/ 8g#/J	.	.
=54	=54	=54	=54
4EE/ 4C#/	4c#\]	8G#/ 8g#/L	.
.	.	8G#/ 8g#/	.
4GG#/ 4D#/	4d#\	8G#/ 8g#/	.
.	.	8G#/ 8g#/J	.
4C#/ 4E/	4e\	8G#/ 8g#/L	.
.	.	8G#/ 8g#/	.
4GG#/) 4D#/	4d#\	8G#/ 8g#/	.
.	.	8G#/ 8g#/J	.
=55	=55	=55	=55
(GGG#q/	.	.	.
1GG#) 1D#	1d#	8G#/ 8g#/L	.
.	.	8G#/ 8g#/	.
.	.	8G#/ 8g#/	.
.	.	8G#/ 8g#/J	.
.	.	8G#/ 8g#/L	.
.	.	8G#/ 8g#/	.
.	.	8G#/ 8g#/	.
.	.	8G#/ 8g#/J	.
=56	=56	=56	=56
(2EEE/ 2EE/	2e^\ 2g#^\	8B/ 8b/L	ff
.	.	8B/ 8b/	.
.	.	8B/ 8b/	.
.	.	8B/ 8b/J	.
2BBB/ 2BB/	2d#^\ 2g#^\	8B/ 8b/L	.
.	.	8B/ 8b/	.
.	.	8B/ 8b/	.
.	.	8B/ 8b/J	.
=57	=57	=57	=57
2EEE/ 2EE/	2e^\ 2g#^\	8B/ 8b/L	.
.	.	8B/ 8b/	.
.	.	8B/ 8b/	.
.	.	8B/ 8b/J	.
4.BBB/ 4.BB/	2d#^\ 2g#^\	8B/ 8b/L	.
.	.	8B/ 8b/	.
.	.	8B/ 8b/	.
8AAA#/ 8AA#/	.	8B/ 8b/J	.
=58	=58	=58	=58
2GGG#/ 2GG#/	8B/ 8b/L	2d#^\ 2g#^\	.
.	8B/ 8b/	.	.
.	8B/ 8b/	.	.
.	8B/ 8b/J	.	.
2DD#/ 2D#/	8B/ 8b/L	2d#^\ 2f##^\	.
.	8B/ 8b/	.	.
.	8B/ 8b/	.	.
.	8B/ 8b/J	.	.
*	*v	*v	*
=59	=59	=59
2GGG#/) 2GG#/	8B^/ 8d#^/ 8g#^/ 8b^/L	.
.	8g#/	.
.	8g#/	.
.	8g#/J	.
2r	8g#/L	.
.	8g#/	.
.	8g#/	.
.	8g#/J	.
=60	=60	=60
*^	*^	*
(2FF#/ 2GG#/ 2F#/	2r	8g#\L	2B#/ 2b#/	p
.	.	8g#\	.	.
.	.	8g#\	.	.
.	.	8g#\J	.	.
4EE/ 4E/	2GG#\	8g#\L	2c#/ 2cc#/	.
.	.	8g#\	.	.
4CC#/ 4C#/	.	8g#\	.	.
.	.	8g#\J	.	.
*v	*v	*	*	*
=61	=61	=61	=61
2.GGG#/) 2.GG#/	2.d#/ 2.cc#/ 2.dd#/	8g#\L	.
.	.	8g#\	.
.	.	8g#\	.
.	.	8g#\J	.
.	.	8g#\L	.
.	.	8g#\	.
4GG#/ 4G#/	4d#/ 4b#/ 4dd#/	8g#\	.
.	.	8g#\J	.
=62	=62	=62	=62
(2C#\ 2G#\	4e/ 4dd#/ 4ee/	8g#\L	.
.	.	8g#\	.
.	4e/ 4cc#/ 4ee/	8g#\	.
.	.	8g#\J	.
2GG#/ 2G#/	4d#/ 4cc#/ 4dd#/	8g#\L	.
.	.	8g#\	.
.	4d#/ 4b#/ 4dd#/	8g#\	.
.	.	8g#\J	.
=63	=63	=63	=63
2AA\ 2A\	8g#\L	1c# 1cc#	.
.	8g#\J	.	.
.	8f#\L	.	.
.	8f#\J	.	.
4GG#/ 4G#/	8g#\L	.	.
.	8g#\J	.	.
4FF#/ 4F#/	8a\L	.	.
.	8a\J	.	.
*	*v	*v	*
=64	=64	=64
*^	*	*
8G#/L	2GG#\)	2B#/ 2d#/ 2g#/	.
8G#/	.	.	.
8G#/	.	.	.
8G#/J	.	.	.
8G#/L	2CC#\ 2GG#\	4c#/ 4e/ 4g#/	.
8G#/	.	.	.
8G#/	.	4A#/ 4c#/ 4g#/	.
8G#/J	.	.	.
=65	=65	=65	=65
8G#/L	4GGG#\ 4GG#\	4B#/ 4d#/ 4g#/	.
8G#/	.	.	.
8G#/	2.CC#^\ 2.GG#^\	4c#/ 4e/ 4g#/	.
8G#/J	.	.	.
8G#/L	.	4A#/ 4c#/ 4g#/	.
8G#/	.	.	.
8G#/	.	4c#/ 4e/ 4g#/	.
8G#/J	.	.	.
=66	=66	=66	=66
8G#/L	4CC#\ 4GG#\	4c#/ 4e/ 4g#/	.
8G#/	.	.	.
8G#/	2GGG#^\ 2GG#^\	4B#/ 4d#/ 4g#/	.
8G#/J	.	.	.
8G#/L	.	4d#/ 4f#/ 4g#/	.
8G#/	.	.	.
8G#/	4CC#\ 4GG#\	4c#/ 4e/ 4g#/	.
8G#/J	.	.	.
=67	=67	=67	=67
8G#/L	1GGG# 1GG#	1B# 1d# 1g#	.
8G#/	.	.	.
8G#/	.	.	.
8G#/J	.	.	.
8G#/L	.	.	.
8G#/	.	.	.
8G#/	.	.	.
8G#/J	.	.	.
=68	=68	=68	=68
*	*	*^	*
2FF#/ 2F#/	8GG#\L	8g#\L	2B#/ 2d#/ (2b#/	<
.	8GG#\	8g#\	.	.
.	8GG#\	8g#\	.	.
.	8GG#\J	8g#\J	.	.
4EE/ 4GG#/ 4E/	2r	8g#\L	2c#/ 2cc#/	.
.	.	8g#\	.	.
4CC#/ 4C#/	.	8g#\	.	.
.	.	8g#\J	.	.
*v	*v	*	*	*
=69	=69	=69	=69
1GGG# &(1GG#&)	2.d#/ 2.cc#/ 2.dd#/	8g#\L	.
.	.	8g#\	.
.	.	8g#\	.
.	.	8g#\J	.
.	.	8g#\L	.
.	.	8g#\	.
.	4d#/ 4b#/ 4dd#/	8g#\	.
.	.	8g#\J	.
=70	=70	=70	=70
2CC#/ 2GG#/	4e/ 4dd#/ 4ee/	8g#\L	.
.	.	8g#\	.
.	4e/ 4cc#/ 4ee/	8g#\	.
.	.	8g#\J	>
2GG#/ 2G#/	4d#/ 4cc#/ 4dd#/	8g#\L	.
.	.	8g#\	.
.	4d#/ 4b#/ 4dd#/	8g#\	<
.	.	8g#\J	.
=71	=71	=71	=71
2EE#/ 2E#/	2g#/ 2bn/ 2cc#/	8c#\L	f
.	.	8c#\	.
.	.	8c#\	.
.	.	8c#\J	.
2FF#/ 2F#/	4g#/ 4a/ 4cc#/	8c#\L	.
.	.	8c#\	.
.	4f#/ 4a/ 4cc#/	8c#\	.
.	.	8c#\J	.
*	*v	*v	*
=72	=72	=72
*^	*	*
8G#/L	2BBB#\ 2BB#\	2d#/ 2f#/ 2g#/	.
8G#/	.	.	.
8G#/	.	.	.
8G#/J	.	.	.
8G#/L	2CC#\ 2C#\	4c#/ 4f#/ 4g#/	.
8G#/	.	.	.
8G#/	.	4c#/ 4e/ 4a#/	.
8G#/J	.	.	.
=73	=73	=73	=73
8G#/L	2.GGG#\ 2.GG#\	2c#/ 2e/ 2a#/	>
8G#/	.	.	.
8G#/	.	.	.
8G#/J	.	.	.
8G#/L	.	4B#/ 4d#/ 4g#/)	.
8G#/	.	.	.
8G#/	4CC#\ 4GG#\	4c#/ 4e/ (4a#/	.
8G#/J	.	.	.
=74	=74	=74	=74
8G#/L	2.GGG#\ 2.GG#\	2c#/ 2e/ 2a#/	>
8G#/	.	.	.
8G#/	.	.	.
8G#/J	.	.	.
8G#/L	.	4B#/ 4d#/ 4g#/)	.
8G#/	.	.	.
8G#/	4CC#\ 4GG#\	4c#/ 4e/ (4a#/	.
8G#/J	.	.	.
=75	=75	=75	=75
2GGG#\	8GG#/ 8G#/L	4c#/ 4e/ 4a#/	>
.	8G#/	.	.
.	8GG#/ 8G#/	4B#/ 4d#/ 4g#/)	.
.	8G#/J	.	.
8A-\L	2r	8A-/L	.
8Fn\	.	8A-/	.
8G-\	.	8A-/	.
8E-\J	.	8A-/J	.
*v	*v	*	*
=76	=76	=76
*k[b-e-a-d-g-]	*k[b-e-a-d-g-]	*k[b-e-a-d-g-]
8D-\L	(8.ff\L	p
8A-\	.	.
.	16dd-\Jk	.
8d-\ 8f\	2a-/	.
8A-\J	.	.
8A-\L	.	.
8A-\	.	.
8A-\	4b-\	.
8A-\J	.	.
=77	=77	=77
8e-\ 8g-\L	2.cc\	.
8A-\	.	.
8A-\	.	.
8A-\J	.	.
8B-\L	.	.
8A-\	.	.
8d-\ 8f\	4dd-\	.
8A-\J	.	.
=78	=78	=78
8c\ 8g-\L	8.ee-/L	.
16A-\L	.	.
16d-\J	16ff/Jk	.
8b-\	2gg-/	.
8A-\J	.	.
8A-\L	.	.
8A-\	.	.
8d-\ 8a-\	4ff/	.
8A-\J	.	.
=79	=79	=79
8c\ 8a-\L	4.ff/	.
8A-\	.	.
8g-\	.	.
8A-\J	8ee-/	.
8d-\ 8f\L	8.dd-/L	.
8A-\	.	.
.	16ddn/Jk	.
8c\ 8g-\	40ee-/LL	.
.	40ff/	.
.	40ee-/	.
.	40dd/	.
.	40ee-/	.
8A-\J	40een/	.
.	40ff/	.
.	40aa-/	.
.	40ggn/	.
.	40gg-/JJ	.
=80	=80	=80
8D-\L	8.ff\L	.
8A-\	.	.
.	16dd-\Jk	.
8d-\ 8f\	2a-/	.
8A-\J	.	.
8A-\L	.	.
8A-\	.	.
8A-\	4b-\	.
8A-\J	.	.
=81	=81	=81
8e-\ 8g-\L	4cc\)	.
8A-\	.	.
(8A-\	4r	.
8A-\J	.	.
8B-\L	4r	.
8A-\J)	.	.
4r	[4bb-^\	f
=82	=82	=82
1r	(4bb-\]	.
.	4aa-\	.
.	4gg-\	.
.	4cc\	.
=83	=83	=83
1r	4ff\	>
.	4ee-\	.
.	4dd-\	.
.	4b-\)	.
=84	=84	=84
*^	*^	*
8r	1AA-	1e- (1g-	2B-\	p
8A-/L	.	.	.	.
8A-/	.	.	.	.
8A-/J	.	.	.	.
8A-/L	.	.	2c\	.
8A-/	.	.	.	.
8A-/	.	.	.	.
8A-/J	.	.	.	.
=85	=85	=85	=85	=85
8A-/L	1D-	1f	[2d-\	.
8A-/	.	.	.	.
8A-/	.	.	.	.
8A-/J	.	.	.	.
8A-/L	.	.	8d-\L]	<
8A-/	.	.	8d-\	.
8A-/	.	.	8.e-\	.
8A-/J	.	.	.	.
.	.	.	16d-\Jk	.
=86	=86	=86	=86	=86
8A-/L	1AA-	1e- 1g-	4d-\	.
8A-/	.	.	.	.
8A-/	.	.	4c\	.
8A-/J	.	.	.	.
8A-/L	.	.	4b-\	>
8A-/	.	.	.	.
8A-/	.	.	4c\	.
8A-/J	.	.	.	.
*	*	*v	*v	*
=87	=87	=87	=87
8A-/L	1AA-	1c 1e- 1g-	.
8A-/	.	.	.
8A-/	.	.	.
8A-/J	.	.	.
8A-/L	.	.	.
8A-/	.	.	.
8A-/	.	.	.
8A-/J	.	.	.
=88	=88	=88	=88
8A-/L	2D-\	1d- 1f	pp
8A-/	.	.	.
8A-/	.	.	.
8A-/J	.	.	.
8A-/L	2AA-\	.	.
8A-/	.	.	.
8A-/	.	.	.
8A-/J	.	.	.
*v	*v	*	*
=89	=89	=89
&(1DD-;&) 1A-;	1d-; 1f;)	.
==	==	==
*-	*-	*-
